common/svg/warning-icon.svg

<svg fill="none" height="20" viewBox="0 0 20 20" width="20" xmlns="http://www.w3.org/2000/svg" xmlns:xlink="http://www.w3.org/1999/xlink"><clipPath id="a"><path d="m0 0h20v20h-20z"/></clipPath><g clip-path="url(#a)"><path d="m8.10187 1.47715c.77789-1.5616206 3.00563-1.5622823 3.78453-.00113l7.5631 15.16058c.7013 1.4057-.321 3.0581-1.8919 3.0581h-15.11513c-1.570367 0-2.592705-1.6514-1.892518-3.057zm3.78433 4.47485c0-.40845-.2179-.84553-.5347-1.1724-.3226-.3328-.7876-.59312-1.3308-.59312-.54164 0-1.01538.2588-1.3473.58887-.32553.32373-.55959.76191-.55959 1.17665 0 .31811.12465 1.96265.24649 3.50043.06139.77497.12279 1.53097.16883 2.09317.02302.2812.0422.5139.05563.6764l.01559.1882.00411.0495.00036.0043c.0077.7754.63865 1.4016 1.41588 1.4016.7776 0 1.4088-.6269 1.4158-1.4028l.0005-.0054.0037-.0495.0143-.1882.0509-.6763c.0422-.5622.0984-1.3182.1546-2.09312.1117-1.53873.2257-3.18158.2257-3.49828zm-1.8849 12.199c1.0832 0 1.9614-.8782 1.9614-1.9614 0-1.0833-.8782-1.9614-1.9614-1.9614-1.08323 0-1.96137.8781-1.96137 1.9614 0 1.0832.87814 1.9614 1.96137 1.9614z" fill="#000" stroke="#000" stroke-width=".65003"/></g></svg>

<svg width="20" height="20" viewBox="0 0 20 20" fill="none" xmlns="http://www.w3.org/2000/svg">
<g clip-path="url(#clip0)">
<path d="M8.10187 1.47715C8.87976 -0.0844706 11.1075 -0.0851323 11.8864 1.47602L19.4495 16.6366C20.1508 18.0423 19.1285 19.6947 17.5576 19.6947H2.44247C0.872103 19.6947 -0.150235 18.0433 0.549952 16.6377L8.10187 1.47715ZM11.8862 5.952C11.8862 5.54355 11.6683 5.10647 11.3515 4.7796C11.0289 4.4468 10.5639 4.18648 10.0207 4.18648C9.47906 4.18648 9.00532 4.44528 8.6734 4.77535C8.34787 5.09908 8.11381 5.53726 8.11381 5.952C8.11381 6.27011 8.23846 7.91465 8.3603 9.45243C8.42169 10.2274 8.48309 10.9834 8.52913 11.5456C8.55215 11.8268 8.57133 12.0595 8.58476 12.222L8.60035 12.4102L8.60446 12.4597L8.60482 12.464C8.61252 13.2394 9.24347 13.8656 10.0207 13.8656C10.7983 13.8656 11.4295 13.2387 11.4365 12.4628L11.437 12.4574L11.4407 12.4079L11.455 12.2197L11.5059 11.5434C11.5481 10.9812 11.6043 10.2252 11.6605 9.45028C11.7722 7.91155 11.8862 6.2687 11.8862 5.952ZM10.0013 18.151C11.0845 18.151 11.9627 17.2728 11.9627 16.1896C11.9627 15.1063 11.0845 14.2282 10.0013 14.2282C8.91807 14.2282 8.03993 15.1063 8.03993 16.1896C8.03993 17.2728 8.91807 18.151 10.0013 18.151Z" fill="black" stroke="black" stroke-width="0.65003"/>
</g>
<defs>
<clipPath id="clip0">
<rect width="20" height="20" fill="white"/>
</clipPath>
</defs>
</svg>
